X:1
T:Frances, 88.68.86
T:Frances, 88.68.86
T:James McGranahan, 1901
T:Public Domain Courtesy of the Cyber Hymnal™
C:James McGranahan, 1901
Z:Public Domain
Z:Courtesy of the Cyber Hymnal™
%%score ( 1 2 ) ( 3 4 )
L:1/8
Q:1/4=110
M:4/4
K:A
V:1 treble 
V:2 treble 
V:3 bass 
V:4 bass 
V:1
 E2 | A3 B A2 E2 | [A,C]2 [B,D]2 [CE]2 [CA]2 | [Ec]3 [Fd] [Ec]2 E2 | [DF]2 [DG]2 [CA]2 [Ec]2 | %5
 [^Dc]3 [DB] [DB]2 [B,D]2 | [B,E]6 E2 | [EB]3 [EA] [EG]2 [CA]2 | [EB]2 [Ec]2 [Ed]2 E2 | %9
 [Ec]3 [EB] [EA]2 [EB]2 | [Ec]2 [Gd]2 [Ae]2 E2 | [DF]2 [Fd]2 [Ec]2 [DB]2 | [CA]6 |] %13
V:2
 E2 | A3 B A2 E2 | x8 | x6 E2 | x8 | x8 | x6 E2 | x8 | x6 E2 | x8 | x6 E2 | x8 | x6 |] %13
V:3
 E,2 | A,3 B, A,2 E,2 | [A,,E,]2 [A,,A,]2 [A,,A,]2 [A,,E,]2 | [A,,A,]3 [A,,A,] [A,,A,]2 [C,A,]2 | %4
 [D,A,]2 [B,,E,]2 [A,,E,]2 [A,,A,]2 | [B,,A,]3 [B,,A,] [B,,A,]2 [B,,A,]2 | [E,G,]6 E,2 | %7
 [E,D]3 [E,C] [E,B,]2 [E,A,]2 | [E,G,]2 [E,A,]2 [E,B,]2 E,2 | [A,E]3 [G,D] [A,C]2 [E,G,]2 | %10
 A,2 A,2 C2 [C,A,]2 | [D,A,]2 [B,,A,]2 [E,A,]2 [E,G,]2 | [A,,A,]6 |] %13
V:4
 E,2 | A,3 B, A,2 E,2 | x8 | x8 | x8 | x8 | x6 E,2 | x8 | x6 E,2 | x8 | A,2 A,2 C2 x2 | x8 | x6 |] %13

